X:1
T:Priscilla's Jig
M:6/8
L:1/8
Q:1/4=180
C:Bob McQuillen
S:transcribed by Dick Atlee from Hand it Down (Avocet CD 105)
R:Jig
N:They played an A music in place of the final second B
K:G
D |: "G" GAB BAB | GFE DGA | "C" BAB "D" cde | "G" dBG GBd |
"C" {d}e2 c "Am" ABc | !
"G" {c}d2 B "Em" GAB | [1 "Am" cde dcB | "D" AFD DEF :|
[2 "Am" AFD "D" DEF| "G" GGG G2 | !
K:D
|: B | "D" AFA BAF | "F#m" Ade fAA | "Em" gAA fAA | "A" efe dcB | !
"D" AFA BAF | "F#m" Ade fAA | "Em" gfg "A" ede | "D" fdd d2 :||
